X: 12166
T: Exile Of Erin, The
R: reel
M: 4/4
K: Dmixolydian
FGAG FDDE|FGAG FDFA|de=fe dcAG|FGAB c2AG|
FGAG FDDE|FGAG FD dc|A4 cdA2|GAcd edd2:|
|:dfed cAAB|c/B/A GA FAEA|dfed ^cdef|geaf efge|
dfed cAAB|c/B/A GA FAEA|DFAB cAdB|cAGE EDD2:|

